X: 31783
T: Patrick's Night
R: reel
M: 4/4
K: Gmajor
|:A|BG ~G2 AGEF|GABd egge|dB ~B2 gedB|~A2 GB AGEG|
BG ~G2 AGED|G2 Bd egge|dB ~B2 gedB|1 AGAB ~G3:|2 AGAB G4||
|:~g3 a gedB|GB ~B2 GABd|~g2 fa gedg|eA B/^c/d eaae|
gbaf ~g3 e|dB ~B2 eBdB|GA B/^c/d gedB|1 AGAB G4:|2 AGAB ~G3||

